!!!OTL: 2031. Die arme Seele.
!!!ARE: Europa, Mitteleuropa, Deutschland, Rheinland; Hessen; Sachsen
!!!SCT: E2031
!!!TXL: @DE
!!!YEM: Copyright 1995, estate of Helmut Schaffrath.
**kern	**text
*ICvox	*
*M3/4	*
*k[b-]	*
*F:	*
!LO:TX:a:t=Langsam.	!
!LO:TX:a:t=Geſungen am Rhein, in Heſſen-Darmſtadt, Franken, Sachſen, Schleſien. Ldh. 49.	!
{8fL	Es
8aJ	.
=1	=1
4.cc	ſun-
8dd	-gen
8ccL	drei
8b-J	.
=2	=2
4.a	En-
8g}	-gel
{8a/L	ein
8ccJ	.
=3	=3
4b-	ſü-
4b-	-ßen
4a	Ge-
=4	=4
2g}	-ſang,
{8aL	ſie
8gJ	.
=5	=5
4f	ſan-
4f	-gen,
4g	daß's
=6	=6
4a	Gott
4a}	in
{8b-L	dem
8ddJ	.
=7	=7
4cc	Him-
4a	-mel
4g	er-
=8	=8
2f}	-klang.
==	==
!!!AGN: geistlich, Wallfahrts - Lied
!!!ONB: ESAC (Essen Associative Code) Database: ERK3
!!!AMT: simple triple
!!!AIN: vox
!!!EED: Helmut Schaffrath
!!!EEV: 1.0
!!!GTL: 4. Katholische Lieder: a) Wallfahrtlieder zur Bittwoche und zum Fronleichnamstag.
!!!URL-scan: https://rosdok.uni-rostock.de/mcrviewer/recordIdentifier/rosdok_ppn745177999/iview2/phys_0734.iview2?x=167.58329267015188&y=784.0376006592996&scale=0.7014306698522891&rotation=0&layout=singlePageLayout
!!!ENC: Anna Maria Matuszewska
!!!EEV: 2025/10/01
*-	*-
